X:42
T:Gossabrough Waltz
M:3/4
L:1/4
C:Trad.
R:Waltz
K:G
| D |:"G" G2-G| "/B"B2 G| "C" E2-G| "G" D B, "/F#"D| "Em" G2-G| "A" B AG| "D" A3|"/F#" A2-D|!
"G" G2-G| "/B"B2-G|"C" E2-G| "Bm" D-B,-D| "Am" E F G| "D" F G A| "G" G3|1 "C/D" G2  D: |2 "C/D"G2 B/c/ ||!
|: "G" d>e d| "/B"B>A G| "C" A G E| "G" D B, D| "Em" G2-G| "A" B A G|!
|1 "D" A3| "D" A "/E"B "/F#"c | "G" d>e d|"G/B" B>A G| "C" A G E|  "G" DB, D| "Am" EF G|"D" F G A| "G" G3| "C/D" G2  B/c/ :||!
|2 | "D/F#  /E" A3    |"D" A2-D| "G" G2-G| "/B"B2-G| "C" E2-G| "Bm"D B,D| "Am" E F G|"D" FG A|"G" G3| "A7" G2||
